digital/Imbassy-X-Files/65ef0811cc67439994568a45/65ef0811cc67439994568f1d_webflow.svg

<svg width="24" height="24" viewBox="0 0 24 24" fill="none" xmlns="http://www.w3.org/2000/svg">
<path d="M20.01 16.01L20 15.999M20.01 20.01L20 19.999M16.01 20.01L16 19.999M12.01 20.01L12 19.999M8.01 20.01L8 19.999M4.01 20.01L4 19.999M4.01 16.01L4 15.999M4.01 12.01L4 11.999M4.01 8.01002L4 7.99902M4.01 4.01002L4 3.99902M8.01 4.01002L8 3.99902M20.01 12V4.00002H12.01V12H20.01Z" stroke="white" stroke-width="1.5" stroke-linecap="square"/>
</svg>

<svg fill="none" height="24" viewBox="0 0 24 24" width="24" xmlns="http://www.w3.org/2000/svg"><path d="m20.01 16.01-.01-.011m.01 4.011-.01-.011m-3.99.011-.01-.011m-3.99.011-.01-.011m-3.99.011-.01-.011m-3.99.011-.01-.011m.01-3.989-.01-.011m.01-3.989-.01-.011m.01-3.98898-.01-.011m.01-3.989-.01-.011m4.01.011-.01-.011m12.01 8.00098v-7.99998h-8v7.99998z" stroke="#fff" stroke-linecap="square" stroke-width="1.5"/></svg>
